svg/Filled/brush_filled.svg

<svg viewBox="0 0 24 24" xmlns="http://www.w3.org/2000/svg" width="24" height="24"><path d="M6.63 9.07c.32.01.6.2.84.43l8.03 7.98c.25.25.45.56.44.91-.01.47-.2.93-.57 1.27l-1.05 1A2.4 2.4 0 0 1 11 20.6l-.6-.59c-.25-.25-.85-.25-1.17.18a7.4 7.4 0 0 1-2.76 2.42c-.58.24-1.22.37-1.9.25a3.5 3.5 0 0 1-1.88-1.03 3.4 3.4 0 0 1-1.03-1.87c-.1-.67.04-1.31.32-1.87a7.4 7.4 0 0 1 2.57-2.61q.3-.23.36-.55a.5.5 0 0 0-.14-.5l-.6-.58a2.3 2.3 0 0 1 .04-3.3l1.05-.98c.38-.36.88-.53 1.37-.51m5.6-6.76c.47-1.27 2.2-1.75 3.22-.73l3.27 3.23c.62.62.84 1.54.54 2.37l-.36 1v.03l.02.01.05.03.07-.02a1.9 1.9 0 0 1 2.15.37l.36.36c1.02 1 1 2.63-.05 3.61l-3.61 3.4a1 1 0 0 1-1.4-.01l-7.33-7.3a1 1 0 0 1 .01-1.44l.27-.25c1.24-1.17 2.2-3.1 2.79-4.66"/></svg>

<svg viewBox="0 0 24 24" xmlns="http://www.w3.org/2000/svg" width="24" height="24"><path d="M6.63 9.07c.32.01.6.2.84.43l8.03 7.98c.25.25.45.56.44.91-.01.47-.2.93-.57 1.27l-1.05 1A2.4 2.4 0 0 1 11 20.6l-.6-.59c-.25-.25-.85-.25-1.17.18a7.4 7.4 0 0 1-2.76 2.42c-.58.24-1.22.37-1.9.25a3.5 3.5 0 0 1-1.88-1.03 3.4 3.4 0 0 1-1.03-1.87c-.1-.67.04-1.31.32-1.87a7.4 7.4 0 0 1 2.57-2.61q.3-.23.36-.55a.5.5 0 0 0-.14-.5l-.6-.58a2.3 2.3 0 0 1 .04-3.3l1.05-.98c.38-.36.88-.53 1.37-.51M12.23 2.3C12.7 1.03 14.43 .55 15.45 1.57L18.72 4.8C19.34 5.42 19.56 6.34 19.26 7.17L18.92 8.21L18.97 8.24L19.04 8.22A1.9 1.9 0 0 1 21.19 8.59L21.55 8.95C22.57 9.95 22.55 11.58 21.5 12.56L17.89 15.96A1 1 0 0 1 16.49 15.95L9.16 8.65A1 1 0 0 1 9.17 7.21L9.44 6.96C10.68 5.79 11.64 3.86 12.23 2.3"/></svg>
